pro/src/icons/stroke-offer.svg

<svg width="48" height="48" viewBox="0 0 48 48" fill="none" xmlns="http://www.w3.org/2000/svg">
<path id="icon" fill="currentColor" fill-rule="evenodd" clip-rule="evenodd" d="M19.8245 8C19.8245 6.8989 20.7198 6 21.8461 6H39.9778C41.1041 6 41.9995 6.8989 41.9995 8V10.59C41.9995 11.1423 42.4473 11.59 42.9997 11.59C43.5522 11.59 44 11.1423 44 10.59V8C44 5.7811 42.1957 4 39.9778 4H21.8461C19.6282 4 17.8239 5.7811 17.8239 8V40C17.8239 42.2189 19.6282 44 21.8461 44H39.9778C42.1957 44 44 42.2189 44 40V17.59C44 17.0377 43.5522 16.59 42.9997 16.59C42.4473 16.59 41.9995 17.0377 41.9995 17.59V40C41.9995 41.1011 41.1041 42 39.9778 42H21.8461C20.7198 42 19.8245 41.1011 19.8245 40V8ZM13.9101 8.45737C14.4445 8.31745 14.7643 7.77091 14.6243 7.23664C14.4844 6.70238 13.9377 6.3827 13.4033 6.52261L6.98723 8.20248C4.83922 8.76258 3.56074 10.9637 4.13908 13.1012L11.8751 41.7407C12.0191 42.2739 12.5682 42.5894 13.1016 42.4454C13.6349 42.3014 13.9505 41.7525 13.8065 41.2193L6.07014 12.5787C5.7826 11.5166 6.41755 10.4178 7.49242 10.1377L13.9101 8.45737Z" />
</svg>

<svg xmlns="http://www.w3.org/2000/svg" width="48" height="48" fill="none"><path id="icon" fill="currentColor" fill-rule="evenodd" d="M19.825 8c0-1.101.895-2 2.021-2h18.132c1.126 0 2.021.899 2.021 2v2.59a1 1 0 0 0 2.001 0V8c0-2.219-1.804-4-4.022-4H21.846c-2.218 0-4.022 1.781-4.022 4v32c0 2.219 1.804 4 4.022 4h18.132C42.196 44 44 42.219 44 40V17.59a1 1 0 0 0-2 0V40c0 1.101-.896 2-2.022 2H21.846a2.007 2.007 0 0 1-2.021-2zm-5.915.457a1 1 0 1 0-.507-1.934l-6.416 1.68A3.99 3.99 0 0 0 4.14 13.1l7.736 28.64a1 1 0 0 0 1.931-.522L6.07 12.58a1.99 1.99 0 0 1 1.422-2.441z" clip-rule="evenodd"/></svg>
